X:1
T:Title
%%score [ ( 1 2 ) ( 3 4 ) ]
L:1/8
Q:1/4=100
M:4/4
K:D
V:1 treble nm="Midi_20"
V:2 treble 
V:3 bass nm="Midi_20"
V:4 bass 
V:1
"^Gloria (87. 87. D)""^Christopher Wordsworth\n(1807-85)""^Hark! the sound of holy voices" A2 d2 c2 B2 | %1
w: |
w: |
w: |
w: |
w: |
w: |
 A2 B2 G2 A2 | F2 G2 A2 D2 | G2 F2"^Henry Smart\n(1813-1879)" E4 || A3 E F2 A2 | d2 cB e2 d2 | %6
w: |||||
w: |||||
w: |||||
w: |||||
w: |||||
w: |||||
 c2 BA d2 c2 | B3 B A4 || E2 F2 G2 F2 | B3 c B2 A2 | B2 c2 d2 cd | e2 B2 c4 || d3 e c2 B2 | %13
w: ||Mul- ti- tude, which|* * num- ber,|like the stars in *|glo- ry *||
w: ||Saint- ly mai- den,|* * mat- ron,|wi- dows who have *|watched to *||
w: ||Mocked, im- pri- soned,|* * men- ted,|sawn a- sun- der, *|slain * *||
w: ||Glad- ly, Lord, with|* * suf- fered;|glad- ly, Lord, with *|Thee they *||
w: ||Love and peace they|* * e- ver,|and all truth and *|know- ledge *||
w: ||Pour up- on us|* * full- ness|that we may for *|||
 A2 B2 G2 A2 | F2 A2 G2 F2 | E2 E2 !fermata!D4 |] %16
w: |||
w: |||
w: |||
w: |||
w: |||
w: |||
V:2
 F2 A2 E2 E2 | F2 F2 E2 E2 | D2 C2 D2 B,2 | B,C D2 C4 || E2 C2 D2 D2 | F2 F2 E2 E2 | E2 F2 F^G A2 | %7
w: Hark! the sound *|ho- ly voi- ces,|chant- ing at the|crys\- * tal sea,|||* * lu\- * *|
w: Pa- tri- arch, *|ho- ly pro- phet,|who pre- pared the|way * of Christ|||* * and * *|
w: They have * *|tri- bu- la- tion,|and have washed their|robes * in blood,|||* * were, * *|
w: March- ing with *|cross their ban- ner,|they have tri- umphed,|fol\- * low- ing|||* * Sa\- * *|
w: Now they reign *|heavn- ly glo- ry,|now they walk in|gol\- * den light,|||* * bliss * *|
w: God of God, *|One be- got- ten,|Light of light, Em-|ma\- * nu- el,|||* * saints * *|
 A2 ^G2 A4 || C2 D2 D2 D2 | D2 E2 E2 F2 | D2 G2 F2 F2 | E2 E2 (E2 F2) || F2 G2 G2 G2 | %13
w: ||none can * *||* * stand *||
w: ||god- ly * *||* * prayer *||
w: ||stoned, tor\- * *||* with sword, *||
w: ||Thee they * *||* * died; *||
w: ||taste for- * *||* * see *||
w: ||of Thy * *||e- ver- more *||
 F2 F2 E2 E2 | D2 D2 D2 D2 | D2 C2 D4 |] %16
w: |||
w: |||
w: |||
w: |||
w: |||
w: |||
V:3
 D2 A,2 A,2 B,C | D2 D2 B,2 C2 | A,2 A,2 A,2 B,2 | G,2 A,2 A,4 || A,2 A,2 A,2 A,2 | %5
w: * * * of *||||Al- le- lu- ia!|
w: * * * and *||||King, a- pos- tle,|
w: * * come from *||||Washed them in the|
w: * * * Thy *||||Thee, the Cap- tain|
w: * * * in *||||Now they drink, as|
w: * * * the *||||In Whose bo- dy|
 B,2 CD B,2 A,B, | C2 DC B,2 E2 | F2 ED C4 || A,2 A,2 B,2 A,2 | B,2 C2 C2 D2 | B,2 E2 D2 A,2 | %11
w: Al- le\- * lu- ia! *|Al- le\- * * ia!|Lord, to * Thee;||||
w: saint, con\- * fes- sor, *|mar- tyr * * e-|van- gel\- * ist;||||
w: blood of * Je- sus; *|tried they * * and|firm they * stood;||||
w: of sal\- * va- tion, *|Thee, their * * viour|and their * King;||||
w: from a * ri- ver, *|ho- ly * * and|in- fi\- * nite:||||
w: joined to\- * geth- er *|all the * * for-|e- ver * dwell;||||
 B,2 B,2 ^A,4 || B,2 D2 E2 C2 | D2 D2 B,2 C2 | A,2 F,2 G,2 A,2 | B,2 A,G, !fermata!F,4 |] %16
w: |Clothed in white ap-|pa- rel, hold- ing|palms of vic- tory|in their * hand.|
w: |Joined in ho- ly|con- cert, sing- ing|to the Lord of|all, are * there.|
w: |They have con- quered|death and Sa- tan|by the might of|Christ the * Lord.|
w: |And by death to|life im- mor- tal|they were born and|glo- ri\- * fied.|
w: |In the be- a-|ti- fic vis- ion|of the bless- èd|Tri- ni\- * ty.|
w: |God the Fa- ther,|God the Son, and|God the Ho- ly|Ghost a\- * dore.|
V:4
 D,2 F,2 A,2 G,2 | F,2 D,2 E,2 A,,2 | D,2 E,2 F,2 G,2 | E,2 D,2 A,,4 || C,2 A,,2 D,2 F,2 | %5
 B,2 A,2 ^G,2 F,G, | A,2 F,2 B,,2 C,2 | D,2 E,2 A,,4 || A,,2 D,2 B,,2 D,2 | G,2 G,2 G,2 F,2 | %10
 G,2 E,2 B,2 A,2 | G,2 G,2 F,4 || B,,2 B,2 A,2 E,2 | F,2 B,,2 E,2 A,,2 | D,2 =C,2 B,,2 A,,2 | %15
 G,,2 A,,2 D,4 |] %16

